fs/clock_12_regular.svg

<svg viewBox="0 0 12 12" fill="none" xmlns="http://www.w3.org/2000/svg" height="1em" width="1em">
  <path d="M6 1C8.76142 1 11 3.23858 11 6C11 8.76142 8.76142 11 6 11C3.23858 11 1 8.76142 1 6C1 3.23858 3.23858 1 6 1ZM6 2C3.79086 2 2 3.79086 2 6C2 8.20914 3.79086 10 6 10C8.20914 10 10 8.20914 10 6C10 3.79086 8.20914 2 6 2ZM5.5 3.5C5.74546 3.5 5.94961 3.67688 5.99194 3.91012L6 4V6H7.5C7.77614 6 8 6.22386 8 6.5C8 6.74546 7.82312 6.94961 7.58988 6.99194L7.5 7H5.5C5.25454 7 5.05039 6.82312 5.00806 6.58988L5 6.5V4C5 3.72386 5.22386 3.5 5.5 3.5Z" fill="#212121"/>
</svg>

<svg viewBox="0 0 12 12" fill="none" xmlns="http://www.w3.org/2000/svg" height="1em" width="1em">
  <path d="M6 1a5 5 0 1 1 0 10A5 5 0 0 1 6 1Zm0 1a4 4 0 1 0 0 8 4 4 0 0 0 0-8Zm-.5 1.5a.5.5 0 0 1 .492.41L6 4v2h1.5a.5.5 0 0 1 .09.992L7.5 7h-2a.5.5 0 0 1-.492-.41L5 6.5V4a.5.5 0 0 1 .5-.5Z" fill="#212121"/>
</svg>
